resources/haticons/SVG/tab.svg

<!-- Generated by IcoMoon.io -->
<svg version="1.1" xmlns="http://www.w3.org/2000/svg" width="24" height="24" viewBox="0 0 24 24">
<title>tab</title>
<path d="M22.5 0h1.5v12h-1.5v-12z"></path>
<path d="M0 12h1.5v12h-1.5v-12z"></path>
<path d="M7.5 16.5h16.5v3h-16.5v3.75l-5.25-5.25 5.25-5.25v3.75z"></path>
<path d="M16.5 7.5h-16.5v-3h16.5v-3.75l5.25 5.25-5.25 5.25z"></path>
</svg>

<svg xmlns="http://www.w3.org/2000/svg" width="24" height="24"><path d="M22.5 0H24v12h-1.5V0zM0 12h1.5v12H0V12zm7.5 4.5H24v3H7.5v3.75L2.25 18l5.25-5.25v3.75zm9-9H0v-3h16.5V.75L21.75 6l-5.25 5.25z"/></svg>
